images/031-car-service-4-1.svg

<svg width="79" height="79" viewBox="0 0 79 79" fill="none" xmlns="http://www.w3.org/2000/svg">
<path d="M70.9789 29.3576L40.1195 7.756C39.9379 7.62886 39.7216 7.56067 39.5 7.56067C39.2783 7.56067 39.0621 7.62886 38.8805 7.756L8.02112 29.3576C7.87889 29.4571 7.76276 29.5896 7.68259 29.7436C7.60241 29.8976 7.56055 30.0687 7.56055 30.2423V70.3595C7.56055 70.6459 7.67434 70.9207 7.87689 71.1232C8.07945 71.3258 8.35417 71.4396 8.64062 71.4396H70.3594C70.6458 71.4396 70.9206 71.3258 71.1231 71.1232C71.3257 70.9207 71.4395 70.6459 71.4395 70.3595V30.2423C71.4394 30.0687 71.3976 29.8976 71.3174 29.7436C71.2372 29.5896 71.1211 29.4571 70.9789 29.3576ZM69.2793 69.2794H9.7207V30.8047L39.5 9.9592L69.2793 30.8047V69.2794Z" fill="#8A1A10"/>
<path d="M22.1653 37.4633L20.4153 40.619C19.4551 40.6241 17.62 40.6344 16.5804 40.6418C14.6459 40.6561 13.0763 41.6486 12.5813 43.1706C12.3668 43.8359 12.2354 44.5252 12.1903 45.2227C12.1845 45.3646 12.2084 45.506 12.2607 45.6381C12.3129 45.7701 12.3922 45.8896 12.4935 45.9891C12.5957 46.0892 12.7172 46.1674 12.8506 46.2189C12.984 46.2705 13.1265 46.2944 13.2695 46.2891H13.2789L15.319 46.3005C15.2509 46.3727 15.184 46.4613 15.1184 46.5382C14.2531 47.5895 13.7894 48.914 13.81 50.2755C13.8103 50.3219 13.8135 50.3683 13.8195 50.4143L15.1783 60.5507C15.2012 61.27 15.4597 61.9619 15.9141 62.52C16.3685 63.0781 16.9936 63.4716 17.6933 63.6399L17.7157 66.6677C17.7205 67.2416 17.9528 67.7902 18.3617 68.1931C18.7706 68.5959 19.3225 68.8201 19.8965 68.8164H19.913L23.2539 68.8001C23.8315 68.796 24.3839 68.5628 24.7898 68.1518C25.1956 67.7407 25.4217 67.1853 25.4183 66.6076L25.3967 63.6816L53.8756 63.4726L53.8972 66.4015C53.8987 66.6837 53.9571 66.9626 54.0688 67.2217C54.1805 67.4808 54.3432 67.7148 54.5473 67.9096C54.7503 68.1052 54.9899 68.2587 55.2524 68.3614C55.5149 68.464 55.7952 68.5138 56.077 68.5078H56.0936L59.4345 68.5124C59.7199 68.5136 60.0027 68.458 60.2664 68.349C60.5302 68.24 60.7697 68.0797 60.971 67.8774C61.1724 67.6751 61.3316 67.4349 61.4393 67.1706C61.5471 66.9064 61.6014 66.6233 61.5989 66.3379L61.5764 63.2997C62.2601 63.1127 62.8648 62.7091 63.2997 62.1494C63.7347 61.5898 63.9766 60.9042 63.989 60.1955L65.2542 50.0446C65.2601 49.9978 65.2629 49.9506 65.2626 49.9033C65.2611 48.5388 64.7655 47.221 63.8674 46.1937C63.8009 46.1187 63.7326 46.0467 63.6628 45.9766L65.7383 45.9612C65.8845 45.9601 66.0289 45.9293 66.1628 45.8707C66.2968 45.8121 66.4174 45.7269 66.5175 45.6203C66.6175 45.5137 66.6949 45.3879 66.7449 45.2505C66.7949 45.1131 66.8164 44.967 66.8083 44.8211C66.7538 44.1186 66.6123 43.4256 66.3871 42.758C65.8741 41.2539 64.3092 40.2715 62.3937 40.2715H62.3513C61.3192 40.2715 59.5122 40.3023 58.5556 40.3059L56.8298 37.1656C55.5334 34.8807 53.6426 32.248 50.4936 32.248H50.4518L28.5459 32.4323C25.9672 32.4513 23.7021 34.2519 22.1653 37.4633ZM14.5372 44.176C14.5656 44.0664 14.5989 43.953 14.6356 43.8381C14.8319 43.2349 15.6385 42.8086 16.5964 42.8015C17.2823 42.7966 18.3148 42.7904 19.2133 42.7853L18.4609 44.142L14.5372 44.176ZM23.238 66.6481L19.8971 66.6726C19.892 66.6721 19.8872 66.6699 19.8835 66.6662C19.8798 66.6626 19.8775 66.6578 19.8769 66.6527L19.8552 63.7246L23.2366 63.6996L23.2582 66.6277C23.2581 66.6331 23.256 66.6382 23.2522 66.642C23.2484 66.6458 23.2433 66.648 23.238 66.6481ZM59.4187 66.3814L56.0776 66.406C56.0725 66.4054 56.0677 66.4032 56.0641 66.3996C56.0604 66.3959 56.0581 66.3912 56.0575 66.3861L56.0359 63.4578L59.4173 63.4328L59.4389 66.3612C59.4384 66.3664 59.4361 66.3712 59.4324 66.3749C59.4287 66.3786 59.4239 66.3809 59.4187 66.3814ZM62.3677 42.4316H62.3917C63.3394 42.4316 64.1401 42.8603 64.3434 43.4554C64.3828 43.5708 64.4172 43.6924 64.4474 43.8021L60.4974 43.8368L59.7449 42.4596C60.6432 42.4559 61.6781 42.4316 62.3677 42.4316ZM60.2246 46.73C60.2305 46.73 60.2364 46.7186 60.2424 46.7186C60.2519 46.7186 60.2614 46.7125 60.2709 46.7125C60.6475 46.7129 61.0196 46.795 61.3614 46.9532C61.7032 47.1114 62.0065 47.3419 62.2505 47.6288C62.7841 48.2494 63.085 49.0363 63.1018 49.8546L61.8375 59.9928C61.8316 60.0397 61.8288 60.087 61.8292 60.1343C61.8298 60.431 61.7133 60.716 61.505 60.9273C61.2968 61.1386 61.0135 61.2593 60.7168 61.263L18.4665 61.5743C18.1698 61.575 17.8849 61.4585 17.6736 61.2503C17.4622 61.0421 17.3416 60.7589 17.3378 60.4623C17.3375 60.4169 17.3343 60.3716 17.3282 60.3267L15.9704 50.203C15.972 49.3798 16.2551 48.5819 16.7728 47.9419C16.9915 47.6761 17.2622 47.4577 17.5682 47.3C17.8742 47.1424 18.2092 47.0487 18.5526 47.0249C18.6018 47.0402 18.652 47.0521 18.7029 47.0605H18.7109L60.2246 46.73ZM46.2935 44.648C46.491 43.9126 46.9243 43.2624 47.5268 42.7968C48.1293 42.3313 48.8678 42.0762 49.6292 42.0706C50.3906 42.0649 51.1328 42.3091 51.7421 42.7657C52.3514 43.2223 52.7942 43.8661 53.0026 44.5984L46.2935 44.648ZM50.4677 34.4082H50.4928C52.1024 34.4082 53.4373 35.5721 54.9451 38.2287L58.4269 44.5472L55.2112 44.6029C54.9798 43.2989 54.2955 42.1185 53.279 41.2696C52.2624 40.4208 50.9789 39.958 49.6545 39.9629H49.6124C48.2804 39.962 46.9918 40.4363 45.9782 41.3004C44.9645 42.1646 44.2924 43.3619 44.0826 44.6773L20.545 44.8442L24.0702 38.485C24.0812 38.4654 24.0915 38.4438 24.1011 38.4233C24.7741 37.0089 26.2486 34.6099 28.5618 34.5929L50.4677 34.4082Z" fill="#8A1A10"/>
<path d="M21.7076 57.5527H21.7327C22.6262 57.5461 23.4805 57.1848 24.1077 56.5483C24.7348 55.9119 25.0835 55.0523 25.0769 54.1588C25.0703 53.2653 24.709 52.411 24.0726 51.7839C23.4361 51.1567 22.5766 50.8081 21.683 50.8147C20.7929 50.823 19.9422 51.1833 19.3168 51.8168C18.6914 52.4504 18.3422 53.3057 18.3455 54.1959C18.3487 55.0861 18.7042 55.9388 19.3341 56.5678C19.9641 57.1967 20.8174 57.5508 21.7076 57.5527ZM21.6991 52.9238H21.708C21.8604 52.9282 22.0103 52.9633 22.1489 53.0269C22.2874 53.0905 22.4117 53.1814 22.5144 53.2941C22.6227 53.4086 22.707 53.5437 22.7622 53.6914C22.8174 53.839 22.8425 53.9963 22.8359 54.1538V54.1666C22.8436 54.3219 22.8203 54.4772 22.7673 54.6234C22.7144 54.7697 22.6328 54.9038 22.5274 55.0182C22.4205 55.1305 22.2921 55.2201 22.1498 55.2816C22.0075 55.3432 21.8543 55.3753 21.6992 55.3761C21.3786 55.3734 21.0722 55.2437 20.8471 55.0153C20.6219 54.787 20.4965 54.4788 20.4984 54.1581C20.4968 53.8361 20.6218 53.5263 20.8463 53.2954C21.0709 53.0646 21.3771 52.9311 21.6991 52.9238Z" fill="#8A1A10"/>
<path d="M57.4238 57.2442H57.4489C57.8894 57.2442 58.3254 57.157 58.732 56.9876C59.1385 56.8183 59.5075 56.5701 59.8177 56.2573C60.1278 55.9446 60.3729 55.5736 60.5389 55.1657C60.7049 54.7577 60.7885 54.3209 60.7848 53.8805C60.7826 53.4439 60.6928 53.0121 60.5207 52.6107C60.3486 52.2094 60.0978 51.8467 59.783 51.544C59.4708 51.2407 59.1018 51.0021 58.6971 50.8417C58.2924 50.6813 57.8601 50.6024 57.4249 50.6094H57.3994C56.9611 50.6062 56.5265 50.69 56.1209 50.856C55.7152 51.0219 55.3465 51.2668 55.0362 51.5764C54.7259 51.8859 54.4802 52.254 54.3132 52.6592C54.1462 53.0645 54.0613 53.4989 54.0635 53.9372C54.0722 54.8208 54.4308 55.6649 55.0606 56.2848C55.6904 56.9046 56.5402 57.2496 57.4238 57.2442ZM56.5695 53.0986C56.681 52.9895 56.8134 52.9041 56.9588 52.8476C57.1041 52.7911 57.2594 52.7645 57.4153 52.7696H57.4244C57.5794 52.7639 57.734 52.7889 57.8792 52.8433C58.0245 52.8976 58.1575 52.9802 58.2707 53.0862C58.3833 53.1925 58.4734 53.3203 58.5355 53.462C58.5977 53.6038 58.6308 53.7566 58.6327 53.9114C58.6341 54.2306 58.5086 54.5372 58.2838 54.7639C58.0591 54.9906 57.7535 55.1187 57.4343 55.12C57.1151 55.1214 56.8084 54.9959 56.5818 54.7711C56.3551 54.5464 56.227 54.2408 56.2257 53.9216C56.2239 53.7682 56.2535 53.6161 56.3126 53.4746C56.3717 53.3331 56.4591 53.2051 56.5695 53.0986Z" fill="#8A1A10"/>
<path d="M33.1429 60.1758H33.1509L46.0701 60.0877C46.3585 60.0766 46.6313 59.9539 46.8311 59.7456C47.0309 59.5373 47.142 59.2596 47.1411 58.9709C47.1401 58.6823 47.0271 58.4053 46.826 58.1983C46.6248 57.9913 46.3511 57.8705 46.0627 57.8613H46.0545L33.1355 57.9933C32.8482 57.9975 32.5743 58.1148 32.373 58.3198C32.1717 58.5248 32.0593 58.8009 32.0603 59.0882C32.0613 59.3755 32.1755 59.6508 32.3782 59.8544C32.5808 60.058 32.8556 60.1735 33.1429 60.1758Z" fill="#8A1A10"/>
<path d="M33.7396 55.3926H33.7478C34.0375 55.3843 34.3124 55.2624 34.513 55.0531C34.7136 54.8438 34.8238 54.5641 34.8198 54.2742L34.8044 52.1585C34.8029 51.872 34.6888 51.5975 34.4867 51.3943C34.2847 51.1911 34.0109 51.0754 33.7243 51.0723H33.7163C33.5744 51.0728 33.434 51.1014 33.3032 51.1564C33.1724 51.2115 33.0538 51.2918 32.9541 51.3928C32.8545 51.4938 32.7758 51.6136 32.7226 51.7451C32.6694 51.8766 32.6427 52.0174 32.6441 52.1593L32.6595 54.2907C32.6605 54.5789 32.7739 54.8553 32.9757 55.0611C33.1774 55.2669 33.4515 55.3859 33.7396 55.3926Z" fill="#8A1A10"/>
<path d="M29.8468 55.3926H29.855C30.1433 55.3876 30.4179 55.2687 30.6188 55.0618C30.8197 54.8549 30.9305 54.5769 30.927 54.2886L30.9116 52.1656C30.9103 51.8783 30.7965 51.603 30.5946 51.3986C30.3927 51.1942 30.1188 51.0771 29.8315 51.0723H29.8233C29.5353 51.0767 29.2608 51.1951 29.0598 51.4015C28.8589 51.6079 28.748 51.8856 28.7513 52.1736L28.7667 54.2978C28.768 54.5853 28.8818 54.8608 29.0836 55.0654C29.2855 55.27 29.5594 55.3874 29.8468 55.3926Z" fill="#8A1A10"/>
<path d="M49.3104 55.2384H49.3186C49.6064 55.2346 49.8809 55.1168 50.0819 54.9109C50.2829 54.7049 50.3939 54.4276 50.3907 54.1398L50.3752 52.0329C50.3738 51.7464 50.2587 51.4723 50.0551 51.2707C49.8516 51.0692 49.5763 50.9567 49.2898 50.9581C49.0034 50.9596 48.7292 51.0747 48.5277 51.2783C48.3261 51.4818 48.2137 51.7571 48.2151 52.0435L48.2305 54.1559C48.2322 54.442 48.3465 54.716 48.5485 54.9186C48.7506 55.1211 49.0243 55.236 49.3104 55.2384Z" fill="#8A1A10"/>
<path d="M37.633 55.2383H37.641C37.7812 55.2414 37.9206 55.2163 38.051 55.1645C38.1814 55.1128 38.3 55.0354 38.4 54.937C38.4999 54.8386 38.5791 54.7211 38.6329 54.5916C38.6867 54.4621 38.7139 54.323 38.713 54.1828L38.6976 52.0973C38.6939 51.8108 38.5765 51.5376 38.3713 51.3377C38.1661 51.1378 37.8899 51.0276 37.6034 51.0313C37.317 51.0351 37.0437 51.1525 36.8438 51.3577C36.6439 51.5629 36.5337 51.8391 36.5374 52.1255L36.5529 54.1967C36.5546 54.3362 36.5839 54.4741 36.6393 54.6022C36.6947 54.7303 36.7749 54.8462 36.8754 54.9431C36.9758 55.04 37.0945 55.116 37.2246 55.1666C37.3546 55.2173 37.4934 55.2417 37.633 55.2383Z" fill="#8A1A10"/>
<path d="M41.525 55.2383H41.533C41.674 55.2396 41.8138 55.2129 41.9444 55.1596C42.0749 55.1064 42.1936 55.0277 42.2934 54.9281C42.3932 54.8285 42.4721 54.71 42.5257 54.5796C42.5792 54.4492 42.6063 54.3094 42.6052 54.1684L42.5898 52.1056C42.588 51.9664 42.5585 51.829 42.5031 51.7013C42.4476 51.5736 42.3672 51.4583 42.2667 51.3621C42.1661 51.2658 42.0474 51.1906 41.9174 51.1407C41.7874 51.0909 41.6488 51.0675 41.5097 51.0718H41.5018C41.3615 51.0691 41.222 51.0946 41.0916 51.1466C40.9612 51.1987 40.8425 51.2763 40.7426 51.3749C40.6426 51.4736 40.5635 51.5912 40.5097 51.7209C40.4559 51.8506 40.4286 51.9897 40.4295 52.1301L40.4449 54.1986C40.4465 54.3381 40.4759 54.4759 40.5312 54.6039C40.5866 54.732 40.6669 54.8477 40.7674 54.9445C40.8679 55.0412 40.9866 55.117 41.1167 55.1675C41.2467 55.2179 41.3855 55.242 41.525 55.2383Z" fill="#8A1A10"/>
<path d="M45.4179 55.2383H45.426C45.5677 55.238 45.708 55.2097 45.8388 55.155C45.9695 55.1003 46.0881 55.0202 46.1878 54.9194C46.2875 54.8186 46.3662 54.6991 46.4194 54.5677C46.4727 54.4364 46.4994 54.2958 46.498 54.154L46.4826 52.0212C46.4817 51.7329 46.3683 51.4563 46.1666 51.2502C45.9649 51.0442 45.6908 50.925 45.4025 50.918H45.3942C45.1042 50.9269 44.8292 51.0494 44.6287 51.2591C44.4282 51.4688 44.3181 51.749 44.3221 52.0391L44.3376 54.153C44.3391 54.4395 44.4532 54.7139 44.6554 54.917C44.8575 55.12 45.1314 55.2354 45.4179 55.2383Z" fill="#8A1A10"/>
</svg>

<svg width="79" height="79" fill="none" xmlns="http://www.w3.org/2000/svg"><path d="M70.979 29.358L40.119 7.756a1.08 1.08 0 00-1.239 0L8.021 29.358a1.08 1.08 0 00-.46.884V70.36a1.08 1.08 0 001.08 1.08h61.718a1.08 1.08 0 001.08-1.08V30.242a1.081 1.081 0 00-.46-.884zm-1.7 39.921H9.721V30.805L39.5 9.959l29.78 20.846v38.474z" fill="#8A1A10"/><path d="M22.165 37.463l-1.75 3.156c-.96.005-2.795.015-3.835.023-1.934.014-3.504 1.007-3.999 2.529a8.468 8.468 0 00-.39 2.052 1.015 1.015 0 00.302.766 1.052 1.052 0 00.777.3h.009l2.04.011c-.068.073-.135.161-.2.238a5.744 5.744 0 00-1.309 3.738c0 .046.003.092.01.138l1.358 10.137a3.285 3.285 0 002.515 3.089l.023 3.028a2.167 2.167 0 002.18 2.148h.017l3.34-.016a2.18 2.18 0 002.165-2.192l-.021-2.926 28.479-.21.021 2.93a2.1 2.1 0 00.65 1.508 2.14 2.14 0 001.53.598h.017l3.34.004a2.154 2.154 0 002.165-2.174l-.023-3.038a3.277 3.277 0 002.413-3.104l1.265-10.151c.006-.047.009-.094.009-.142a5.646 5.646 0 00-1.396-3.71 5.15 5.15 0 00-.204-.216l2.075-.016a1.079 1.079 0 001.07-1.14 8.515 8.515 0 00-.42-2.063c-.514-1.504-2.079-2.486-3.994-2.486h-.043c-1.032 0-2.839.03-3.795.034l-1.726-3.14c-1.297-2.285-3.187-4.918-6.336-4.918h-.042l-21.906.184c-2.579.02-4.844 1.82-6.38 5.031zm-7.628 6.713c.029-.11.062-.223.099-.338.196-.603 1.003-1.03 1.96-1.037l2.617-.016-.752 1.357-3.924.034zm8.701 22.472l-3.34.025a.023.023 0 01-.02-.02l-.023-2.928 3.382-.025.021 2.928a.02.02 0 01-.02.02zm36.18-.267l-3.34.025a.023.023 0 01-.02-.02l-.022-2.928 3.381-.025.022 2.928a.022.022 0 01-.02.02zm2.95-23.95h.024c.947 0 1.748.43 1.951 1.024.04.116.074.237.104.347l-3.95.035-.752-1.377c.898-.004 1.933-.028 2.623-.028zm-2.143 4.299c.005 0 .011-.011.017-.011.01 0 .02-.007.029-.007a2.603 2.603 0 011.98.917 3.52 3.52 0 01.85 2.226l-1.264 10.138a1.062 1.062 0 00-.008.141 1.126 1.126 0 01-1.112 1.129l-42.25.311a1.126 1.126 0 01-1.13-1.112c0-.045-.003-.09-.009-.135L15.97 50.203a3.606 3.606 0 01.803-2.261 2.532 2.532 0 011.78-.917c.049.015.099.027.15.035h.008l41.514-.33zm-13.931-2.082a3.48 3.48 0 016.709-.05l-6.71.05zm4.174-10.24h.025c1.61 0 2.944 1.164 4.452 3.82l3.482 6.32-3.216.055a5.623 5.623 0 00-5.556-4.64h-.043a5.596 5.596 0 00-5.53 4.714l-23.537.167 3.525-6.359a.96.96 0 00.031-.062c.673-1.414 2.148-3.813 4.46-3.83l21.907-.185z" fill="#8A1A10"/><path d="M21.708 57.553h.025a3.37 3.37 0 00-.05-6.738 3.37 3.37 0 00.025 6.738zm-.009-4.63h.009a1.136 1.136 0 01.806.371 1.179 1.179 0 01.322.86v.013a1.17 1.17 0 01-.309.851 1.153 1.153 0 01-.828.358 1.21 1.21 0 01-1.2-1.218 1.229 1.229 0 011.2-1.234zm35.725 4.321h.025a3.336 3.336 0 003.072-4.633 3.265 3.265 0 00-.738-1.067 3.307 3.307 0 00-2.358-.935h-.026a3.312 3.312 0 00-3.336 3.328 3.34 3.34 0 003.36 3.307zm-.855-4.145a1.155 1.155 0 01.846-.33h.01a1.173 1.173 0 01.846.317 1.154 1.154 0 01.362.825 1.203 1.203 0 11-2.32-.436c.059-.142.146-.27.256-.376zm-23.426 7.077h.008l12.92-.088a1.114 1.114 0 00-.008-2.227h-.009l-12.919.132a1.09 1.09 0 00.008 2.183zm.597-4.783h.008a1.104 1.104 0 001.072-1.119l-.016-2.116a1.092 1.092 0 00-1.08-1.086h-.008a1.076 1.076 0 00-1.072 1.087l.016 2.132a1.106 1.106 0 001.08 1.102zm-3.893 0h.008a1.091 1.091 0 001.072-1.104l-.015-2.123a1.098 1.098 0 00-1.08-1.094h-.009a1.089 1.089 0 00-1.072 1.102l.016 2.124a1.1 1.1 0 001.08 1.095zm19.463-.155h.009a1.087 1.087 0 001.072-1.098l-.016-2.107a1.08 1.08 0 10-2.16.01l.015 2.113a1.09 1.09 0 001.08 1.082zm-11.677 0h.008a1.048 1.048 0 001.072-1.055l-.015-2.086a1.08 1.08 0 10-2.16.029l.015 2.07a1.054 1.054 0 001.08 1.042zm3.892 0h.008a1.063 1.063 0 001.072-1.07l-.015-2.062a1.05 1.05 0 00-1.08-1.034h-.008a1.053 1.053 0 00-1.073 1.058l.016 2.069a1.053 1.053 0 001.08 1.04zm3.893 0h.008a1.076 1.076 0 001.072-1.084l-.015-2.133a1.107 1.107 0 00-1.08-1.103h-.009a1.106 1.106 0 00-1.072 1.121l.016 2.114a1.09 1.09 0 001.08 1.085z" fill="#8A1A10"/></svg>
